X: 10628
T: Dowds' Favourite
R: reel
M: 4/4
K: Gdorian
DG GA B2 GB|AF (3F(3A(3F CF A,F|DG GA [D3B3] B|BA GA BG AF|
DG GA BA GB|AF (3F(3A(3F CF A,F|DG GA [B3D3] d|1 cA [Af]c AG GF:|2 cA [Af]c AG GA|:
B2 dB FB dB|FB dB cB Ac|Bc dB FB dB|cB Ac BG GA|
B2 Bd c2 cd|B2 Bd cA FD|GB Ac Bd fd|1 cA [Af]c AG GA:|2 cA [Af]c AG G2|
gd (3d(3d(3d gbag|fc (3c(3c(3c fgaf|gd (3d(3d(3d gbag|fd^cd BG G2|
gd (3d(3d(3d gbag|fc (3c(3c(3c fgaf|B2 BA Bbag|fd^cd BG G2|g2 [gd]g [Bg]g[dg]g|f2 [fc]f [Af]f[cf]f|
g2 [dg]g [Bg]g[gd]g|fd^cd BG G2|gd (3d(3d(3d gbag|fc (3c(3c(3c fgaf|B2 BA Bbag|fd^cd cdBG|

